packages/icons/src/assets/raw/outlined/SVG/outlined-social-contact.svg

<svg xmlns="http://www.w3.org/2000/svg" viewBox="0 0 24 24">
  <path d="M12.93 14.37a2.48 2.48 0 112.48-2.48 2.49 2.49 0 01-2.48 2.48zm0-4a1.48 1.48 0 101.48 1.48 1.48 1.48 0 00-1.48-1.44z"/>
  <path d="M9.18 17.7a.51.51 0 01-.47-.53 4 4 0 014.29-3.8 4 4 0 014.22 3.8.5.5 0 01-.47.53.49.49 0 01-.53-.47A3.06 3.06 0 0013 14.37a3.08 3.08 0 00-3.28 2.86.49.49 0 01-.54.47z"/>
  <g>
    <path d="M17.09 20.5H6.31a2.51 2.51 0 01-2.5-2.5V6.31a2.51 2.51 0 012.5-2.5h10.78a2.5 2.5 0 012.5 2.5V18a2.5 2.5 0 01-2.5 2.5zM6.31 4.81a1.5 1.5 0 00-1.5 1.5V18a1.5 1.5 0 001.5 1.5h10.78a1.5 1.5 0 001.5-1.5V6.31a1.5 1.5 0 00-1.5-1.5z"/>
    <path d="M7.14 18.82a.5.5 0 01-.5-.5V6a.5.5 0 01.5-.5.51.51 0 01.5.5v12.32a.5.5 0 01-.5.5z"/>
  </g>
</svg>

<svg xmlns="http://www.w3.org/2000/svg" viewBox="0 0 24 24">
  <title>outlined-social-contact</title>
  <g>
    <g style="opacity: 0">
      <rect width="24" height="24"/>
    </g>
    <g>
      <g style="opacity: 0">
        <path d="M12,21.5A9.5,9.5,0,1,1,21.5,12,9.51,9.51,0,0,1,12,21.5Zm0-18A8.5,8.5,0,1,0,20.5,12,8.51,8.51,0,0,0,12,3.5Z"/>
      </g>
      <g>
        <g>
          <path d="M12.93,14.37a2.48,2.48,0,1,1,2.48-2.48A2.49,2.49,0,0,1,12.93,14.37Zm0-4a1.48,1.48,0,1,0,1.48,1.48A1.48,1.48,0,0,0,12.93,10.41Z"/>
          <path d="M9.18,17.7h0a.51.51,0,0,1-.47-.53A4,4,0,0,1,13,13.37a4,4,0,0,1,4.22,3.8.5.5,0,0,1-.47.53.49.49,0,0,1-.53-.47A3.06,3.06,0,0,0,13,14.37a3.08,3.08,0,0,0-3.28,2.86A.49.49,0,0,1,9.18,17.7Z"/>
        </g>
        <g>
          <path d="M17.09,20.5H6.31A2.51,2.51,0,0,1,3.81,18V6.31a2.51,2.51,0,0,1,2.5-2.5H17.09a2.5,2.5,0,0,1,2.5,2.5V18A2.5,2.5,0,0,1,17.09,20.5ZM6.31,4.81a1.5,1.5,0,0,0-1.5,1.5V18a1.5,1.5,0,0,0,1.5,1.5H17.09a1.5,1.5,0,0,0,1.5-1.5V6.31a1.5,1.5,0,0,0-1.5-1.5Z"/>
          <path d="M7.14,18.82a.5.5,0,0,1-.5-.5V6a.5.5,0,0,1,.5-.5.51.51,0,0,1,.5.5V18.32A.5.5,0,0,1,7.14,18.82Z"/>
        </g>
      </g>
    </g>
  </g>
</svg>
